Numix-Circle/48x48/apps/kdiamond.svg

<?xml version="1.0" encoding="UTF-8" standalone="no"?>
<svg
   xmlns:dc="http://purl.org/dc/elements/1.1/"
   xmlns:cc="http://creativecommons.org/ns#"
   xmlns:rdf="http://www.w3.org/1999/02/22-rdf-syntax-ns#"
   xmlns:svg="http://www.w3.org/2000/svg"
   xmlns="http://www.w3.org/2000/svg"
   xmlns:xlink="http://www.w3.org/1999/xlink"
   xmlns:sodipodi="http://sodipodi.sourceforge.net/DTD/sodipodi-0.dtd"
   xmlns:inkscape="http://www.inkscape.org/namespaces/inkscape"
   viewBox="0 0 48 48"
   id="svg2"
   version="1.1"
   inkscape:version="0.91 r13725"
   sodipodi:docname="kdiamond3.svg">
  <metadata
     id="metadata108">
    <rdf:RDF>
      <cc:Work
         rdf:about="">
        <dc:format>image/svg+xml</dc:format>
        <dc:type
           rdf:resource="http://purl.org/dc/dcmitype/StillImage" />
        <dc:title></dc:title>
      </cc:Work>
    </rdf:RDF>
  </metadata>
  <sodipodi:namedview
     pagecolor="#ffffff"
     bordercolor="#666666"
     borderopacity="1"
     objecttolerance="10"
     gridtolerance="10"
     guidetolerance="10"
     inkscape:pageopacity="0"
     inkscape:pageshadow="2"
     inkscape:window-width="1366"
     inkscape:window-height="713"
     id="namedview106"
     showgrid="false"
     inkscape:zoom="2.8284271"
     inkscape:cx="24"
     inkscape:cy="24"
     inkscape:window-x="0"
     inkscape:window-y="28"
     inkscape:window-maximized="1"
     inkscape:current-layer="svg2" />
  <defs
     id="defs4">
    <linearGradient
       id="linearGradient3764"
       x1="1"
       x2="47"
       gradientUnits="userSpaceOnUse"
       gradientTransform="matrix(0,-1,1,0,-1.5e-6,47.999998)">
      <stop
         stop-color="#327dca"
         stop-opacity="1"
         id="stop7" />
      <stop
         offset="1"
         stop-color="#4086d0"
         stop-opacity="1"
         id="stop9" />
    </linearGradient>
    <linearGradient
       inkscape:collect="always"
       xlink:href="#linearGradient4230"
       id="linearGradient4236"
       x1="20.025843"
       y1="18.25"
       x2="30.151569"
       y2="28"
       gradientUnits="userSpaceOnUse" />
    <linearGradient
       inkscape:collect="always"
       id="linearGradient4230">
      <stop
         style="stop-color:#bad2d6;stop-opacity:0.8392157"
         offset="0"
         id="stop4232" />
      <stop
         style="stop-color:#75a3ae;stop-opacity:0.80784315"
         offset="1"
         id="stop4234" />
    </linearGradient>
  </defs>
  <g
     id="g56">
    <path
       d="m 36.31 5 c 5.859 4.062 9.688 10.831 9.688 18.5 c 0 12.426 -10.07 22.5 -22.5 22.5 c -7.669 0 -14.438 -3.828 -18.5 -9.688 c 1.037 1.822 2.306 3.499 3.781 4.969 c 4.085 3.712 9.514 5.969 15.469 5.969 c 12.703 0 23 -10.298 23 -23 c 0 -5.954 -2.256 -11.384 -5.969 -15.469 c -1.469 -1.475 -3.147 -2.744 -4.969 -3.781 z m 4.969 3.781 c 3.854 4.113 6.219 9.637 6.219 15.719 c 0 12.703 -10.297 23 -23 23 c -6.081 0 -11.606 -2.364 -15.719 -6.219 c 4.16 4.144 9.883 6.719 16.219 6.719 c 12.703 0 23 -10.298 23 -23 c 0 -6.335 -2.575 -12.06 -6.719 -16.219 z"
       opacity="0.05"
       id="path58" />
    <path
       d="m 41.28 8.781 c 3.712 4.085 5.969 9.514 5.969 15.469 c 0 12.703 -10.297 23 -23 23 c -5.954 0 -11.384 -2.256 -15.469 -5.969 c 4.113 3.854 9.637 6.219 15.719 6.219 c 12.703 0 23 -10.298 23 -23 c 0 -6.081 -2.364 -11.606 -6.219 -15.719 z"
       opacity="0.1"
       id="path60" />
    <path
       d="m 31.25 2.375 c 8.615 3.154 14.75 11.417 14.75 21.13 c 0 12.426 -10.07 22.5 -22.5 22.5 c -9.708 0 -17.971 -6.135 -21.12 -14.75 a 23 23 0 0 0 44.875 -7 a 23 23 0 0 0 -16 -21.875 z"
       opacity="0.2"
       id="path62" />
  </g>
  <g
     id="g64">
    <path
       d="m 24 1 c 12.703 0 23 10.297 23 23 c 0 12.703 -10.297 23 -23 23 -12.703 0 -23 -10.297 -23 -23 0 -12.703 10.297 -23 23 -23 z"
       fill="url(#linearGradient3764)"
       fill-opacity="1"
       id="path66" />
  </g>
  <g
     id="g68" />
  <g
     id="g102">
    <path
       d="m 40.03 7.531 c 3.712 4.084 5.969 9.514 5.969 15.469 0 12.703 -10.297 23 -23 23 c -5.954 0 -11.384 -2.256 -15.469 -5.969 4.178 4.291 10.01 6.969 16.469 6.969 c 12.703 0 23 -10.298 23 -23 0 -6.462 -2.677 -12.291 -6.969 -16.469 z"
       opacity="0.1"
       id="path104" />
  </g>
  <g
     id="g3398"
     transform="matrix(1.375,0,0,1.3333333,-9,-9.3333322)">
    <path
       style="fill:#000000;fill-opacity:0.09803922;fill-rule:nonzero;stroke:none"
       d="m 22.683239,16.75 -4.889205,2.538574 -1.066761,3.386719 8,12.074707 8,-12.074707 -1.066762,-3.386719 -4.889204,-2.538574 -0.08807,0 -3.911932,0 -0.08807,0 z"
       id="path4223"
       inkscape:connector-curvature="0" />
    <path
       d="M 24,33.775063 16,21.925021 17.155556,18.539295 22.044444,16 25.955555,16 30.844444,18.539295 32,21.925021"
       id="path80"
       style="fill:url(#linearGradient4236);fill-opacity:1;fill-rule:nonzero;stroke:none"
       inkscape:connector-curvature="0"
       sodipodi:nodetypes="ccccccc" />
    <path
       style="fill:#b0d4e0;fill-opacity:0.67632847;fill-rule:nonzero;stroke:none"
       d="M 30.933277,18.539295 32,21.925021 24,34 16,21.925021 17.066693,18.539295 21.955555,16 l 4.088889,0 z m -0.231055,0.169286 -1.573333,-0.821039 0.56,1.684399 L 31.6,21.518734 Z m -4.746667,-2.454652 -3.911111,0 -2.844444,1.481256 -0.604444,1.904788 3.039999,2.030907 4.728889,0 3.04,-2.031224 L 28.8,17.735185 Z m 3.617778,3.639656 -2.906667,1.963721 0.755556,3.21644 4.186667,-3.148725 z m -3.217778,2.090686 -4.711111,0 -0.711111,3.15719 6.133333,0 z M 18.871111,17.887542 17.297778,18.708581 16.4,21.518734 18.311111,19.572259 Z m 12.435555,4.64691 -3.884444,2.945326 -3.205381,7.762033 z m -12.879999,-2.640867 -2.035556,2.031436 4.186667,3.148725 0.755555,-3.216651 z m 8.622222,5.62877 -6.097778,0 L 24,33.207954 Z m -10.355556,-2.987903 7.088808,10.707359 -3.204363,-7.761519 z"
       id="path82"
       inkscape:connector-curvature="0"
       sodipodi:nodetypes="cccccccccccccccccccccccccccccccccccccccccccccccccccccc" />
  </g>
</svg>

<svg xmlns="http://www.w3.org/2000/svg" viewBox="0 0 48 48"><defs><linearGradient id="linearGradient3764" x1="1" x2="47" gradientUnits="userSpaceOnUse" gradientTransform="matrix(0,-1,1,0,-1.5e-6,47.999998)"><stop stop-color="#327dca" stop-opacity="1"/><stop offset="1" stop-color="#4086d0" stop-opacity="1"/></linearGradient><linearGradient id="linearGradient4236" x1="20.03" y1="18.25" x2="30.15" y2="28" gradientUnits="userSpaceOnUse"><stop stop-color="#bad2d6" stop-opacity="0.839"/><stop offset="1" stop-color="#75a3ae" stop-opacity="0.808"/></linearGradient></defs><g><path d="m 36.31 5 c 5.859 4.062 9.688 10.831 9.688 18.5 c 0 12.426 -10.07 22.5 -22.5 22.5 c -7.669 0 -14.438 -3.828 -18.5 -9.688 c 1.037 1.822 2.306 3.499 3.781 4.969 c 4.085 3.712 9.514 5.969 15.469 5.969 c 12.703 0 23 -10.298 23 -23 c 0 -5.954 -2.256 -11.384 -5.969 -15.469 c -1.469 -1.475 -3.147 -2.744 -4.969 -3.781 z m 4.969 3.781 c 3.854 4.113 6.219 9.637 6.219 15.719 c 0 12.703 -10.297 23 -23 23 c -6.081 0 -11.606 -2.364 -15.719 -6.219 c 4.16 4.144 9.883 6.719 16.219 6.719 c 12.703 0 23 -10.298 23 -23 c 0 -6.335 -2.575 -12.06 -6.719 -16.219 z" opacity="0.05"/><path d="m 41.28 8.781 c 3.712 4.085 5.969 9.514 5.969 15.469 c 0 12.703 -10.297 23 -23 23 c -5.954 0 -11.384 -2.256 -15.469 -5.969 c 4.113 3.854 9.637 6.219 15.719 6.219 c 12.703 0 23 -10.298 23 -23 c 0 -6.081 -2.364 -11.606 -6.219 -15.719 z" opacity="0.1"/><path d="m 31.25 2.375 c 8.615 3.154 14.75 11.417 14.75 21.13 c 0 12.426 -10.07 22.5 -22.5 22.5 c -9.708 0 -17.971 -6.135 -21.12 -14.75 a 23 23 0 0 0 44.875 -7 a 23 23 0 0 0 -16 -21.875 z" opacity="0.2"/></g><g><path d="m 24 1 c 12.703 0 23 10.297 23 23 c 0 12.703 -10.297 23 -23 23 -12.703 0 -23 -10.297 -23 -23 0 -12.703 10.297 -23 23 -23 z" fill="url(#linearGradient3764)" fill-opacity="1"/></g><g><path d="m 40.03 7.531 c 3.712 4.084 5.969 9.514 5.969 15.469 0 12.703 -10.297 23 -23 23 c -5.954 0 -11.384 -2.256 -15.469 -5.969 4.178 4.291 10.01 6.969 16.469 6.969 c 12.703 0 23 -10.298 23 -23 0 -6.462 -2.677 -12.291 -6.969 -16.469 z" opacity="0.1"/></g><g transform="matrix(1.375,0,0,1.3333333,-9,-9.3333322)"><path d="m 22.683 16.75 -4.889 2.539 -1.067 3.387 8 12.07 8 -12.07 -1.067 -3.387 -4.889 -2.539 -0.088 0 -3.912 0 -0.088 0 z" fill="#000" fill-rule="nonzero" stroke="none" fill-opacity="0.098"/><path d="m 24 33.775 -8 -11.85 1.156 -3.386 4.889 -2.539 3.911 0 4.889 2.539 1.156 3.386" fill="url(#linearGradient4236)" fill-rule="nonzero" stroke="none" fill-opacity="1"/><path d="m 30.933 18.539 1.067 3.386 -8 12.07 -8 -12.07 1.067 -3.386 4.889 -2.539 l 4.089 0 z m -0.231 0.169 -1.573 -0.821 0.56 1.684 l 1.911 1.947 m -5.644 -5.265 -3.911 0 -2.844 1.481 -0.604 1.905 3.04 2.031 4.729 0 3.04 -2.031 l -0.604 -1.904 m 0.773 2.158 -2.907 1.964 0.756 3.216 4.187 -3.149 z m -3.218 2.091 -4.711 0 -0.711 3.157 6.133 0 z m -7.484 -4.097 -1.573 0.821 -0.898 2.81 1.911 -1.946 m 12.996 2.962 -3.884 2.945 -3.205 7.762 z m -12.88 -2.641 -2.036 2.031 4.187 3.149 0.756 -3.217 z m 8.622 5.629 -6.098 0 l 3.049 7.686 m -7.307 -10.674 7.089 10.707 -3.204 -7.762 z" fill="#b0d4e0" fill-rule="nonzero" stroke="none" fill-opacity="0.676"/></g></svg>
